weasis-distributions/resources/svg/other/audio.svg

<?xml version="1.0" encoding="UTF-8"?>
<svg width="16" height="16" fill="none" version="1.1" viewBox="0 0 16 16" xmlns="http://www.w3.org/2000/svg">
 <g>
  <path d="m11.334 5.3115-0.881 0.8885c0.3911 0.52209 0.6026 1.1569 0.6026 1.8092s-0.2115 1.2872-0.6026 1.8092l0.878 0.878c0.6177-0.76105 0.9553-1.7112 0.9562-2.6914 9e-4 -0.98019-0.3349-1.9309-0.9512-2.6931z" fill="#389fd6"/>
  <path d="m13.5 3.15-0.8955 0.8965c0.7561 1.1828 1.1579 2.5572 1.1579 3.961 0 1.4038-0.4018 2.7782-1.1579 3.961l0.8925 0.888c0.9785-1.4292 1.5023-3.1207 1.5028-4.8528 6e-4 -1.7321-0.5222-3.4239-1.4998-4.8537z" fill="#389fd6"/>
  <path d="m8.6145 2c-0.10551 0.00409-0.20621 0.04516-0.2845 0.116l-3.8 3.16c-0.06204 0.06162-0.13724 0.10839-0.21993 0.13679-0.0827 0.0284-0.17076 0.03771-0.25757 0.02721h-2.4485c-0.07947-5.3e-4 -0.15825 0.01473-0.23177 0.04489-0.07352 0.03017-0.14032 0.07464-0.19651 0.13083-0.05619 0.0562-0.10066 0.12299-0.13083 0.19651-0.03016 0.07352-0.045423 0.1523-0.044892 0.23177v3.913c-3.99e-4 0.0794 0.014962 0.1581 0.045182 0.2315 0.03023 0.0734 0.07472 0.14 0.1309 0.1961s0.12293 0.1005 0.19638 0.1306c0.07346 0.0301 0.15216 0.0453 0.23154 0.0448h2.446c0.08681-0.0105 0.17487-0.0012 0.25757 0.0272 0.08269 0.0284 0.15789 0.0752 0.21993 0.1368l3.8 3.16c0.2605 0.2165 0.5405 0.112 0.5405-0.1445v-11.478c0.00195-0.03415-0.00321-0.06833-0.01516-0.10038s-0.03043-0.06127-0.05426-0.08581c-0.02383-0.02453-0.0525-0.04385-0.08418-0.05673-0.03169-0.01288-0.06571-0.01903-0.0999-0.01808z" fill="#6e6e6e"/>
 </g>
</svg>

<svg width="16" height="16" viewBox="0 0 16 16" fill="none" xmlns="http://www.w3.org/2000/svg">
<path d="M8.6145 2C8.50899 2.00409 8.40829 2.04516 8.33 2.116L4.53 5.276C4.46796 5.33762 4.39276 5.38439 4.31007 5.41279C4.22737 5.44119 4.13931 5.4505 4.0525 5.44H1.604C1.52453 5.43947 1.44575 5.45473 1.37223 5.48489C1.29871 5.51506 1.23191 5.55953 1.17572 5.61572C1.11953 5.67192 1.07506 5.73871 1.04489 5.81223C1.01473 5.88575 0.999467 5.96453 0.999998 6.044V9.957C0.999599 10.0364 1.01496 10.1151 1.04518 10.1885C1.07541 10.2619 1.1199 10.3285 1.17608 10.3846C1.23226 10.4407 1.29901 10.4851 1.37246 10.5152C1.44592 10.5453 1.52462 10.5605 1.604 10.56H4.05C4.13681 10.5495 4.22487 10.5588 4.30757 10.5872C4.39026 10.6156 4.46546 10.6624 4.5275 10.724L8.3275 13.884C8.588 14.1005 8.868 13.996 8.868 13.7395V2.261C8.86995 2.22685 8.86479 2.19267 8.85284 2.16062C8.84089 2.12857 8.82241 2.09935 8.79858 2.07481C8.77475 2.05028 8.74608 2.03096 8.7144 2.01808C8.68271 2.0052 8.64869 1.99905 8.6145 2V2ZM13.5 3.15L12.6045 4.0465C13.3606 5.22926 13.7624 6.60372 13.7624 8.0075C13.7624 9.41129 13.3606 10.7857 12.6045 11.9685L13.497 12.8565C14.4755 11.4273 14.9993 9.73579 14.9998 8.00371C15.0004 6.27164 14.4776 4.57982 13.5 3.15V3.15ZM11.3335 5.3115L10.4525 6.2C10.8436 6.72209 11.0551 7.35689 11.0551 8.00925C11.0551 8.66161 10.8436 9.29641 10.4525 9.8185L11.3305 10.6965C11.9482 9.93545 12.2858 8.98532 12.2867 8.00514C12.2876 7.02495 11.9518 6.0742 11.3355 5.312L11.3335 5.3115Z" fill="#6E6E6E"/>
</svg>
